X: 5
T: Frank's
R: reel
M: 4/4
L: 1/8
K: Amaj
|Ac BA F2 AF|EF AB cA Bc |d3 f ec Ae |fa ec (3Bcd cB |
Ac BA F2 AF|EF AB cA Bc |d3 f ec Ac |1 BA GB A2 (3EFG :|2 BA GB Ae fg ||
|aA Ag AA fA |ef fe cA Bc |d3 f ec Ac |Bc de fe ce |
|1 aA Ag AA fA |ef fe cA Bc |df (3fff ec Ac |BA GB Ae fg :|
|2 Ac BA F3 A |EF AB cA Bc |d3 f ec Ac |BA GB A4 ||


Tune 646	Setting 646

